X:21
T:Farewell to Ireland
R:slow air
D:Dolores Keane & John Faulkner: Farewell To Eirinn
Z:id:hn-slowair-21
M:3/4
L:1/8
Q:1/4=100
K:Ador
A4 {c}(3BAG | {c}A4 Bd | e4 d2 | e g3 (3gge | d g3 {c}BA | B4 {cB}A2 | HG4 {c}BG ||
A4 {c}(3BAG | {c}A4 Bd | e4 d2 | e g3 (3gge | d g3 {c}BA | B4 {c}(3BAG | HA6 ||
A4 {c}(3BAG | {c}A4 Bd | e4 d2 | e g3 (3gge | d g3 {c}BA | B4 {c}BA | {c}HG4 ||
g2 | e4 de | g Ha3 ag | a4 ag | e g3 Bd | g4 B2 | e G3 {B}AG | {c}HA6 ||

